X:1
T:Immortality, SM
T:Immortality, SM
T:William Henry Harrison Butler, 1898
T:Public Domain Courtesy of the Cyber Hymnal™
C:William Henry Harrison Butler, 1898
Z:Public Domain
Z:Courtesy of the Cyber Hymnal™
%%score ( 1 2 ) ( 3 4 )
L:1/8
Q:1/4=117
M:3/4
K:Eb
V:1 treble 
V:2 treble 
V:3 bass 
V:4 bass 
V:1
 [EB]2 [EG]2 [B,E]2 | [B,A]4 [B,G]2 | [DF]6 | [DF]2 [EG]2 [EB]2 | C4 [B,D]2 | [B,E]6 | %6
 [GB]2 [EB]2 [Ac]2 | [FA]6 | [FB]2 [EG]2 [EA]2 | [DF]6 | [Ec]2 [EB]2 [CE]2 | %11
 ([EG]>[DF]) E2 [B,D]2 | [B,E]6 |] %13
V:2
 x6 | x6 | x6 | x6 | (C2 A,2) x2 | x6 | x6 | x6 | x6 | x6 | x6 | x2 E2 x2 | x6 |] %13
V:3
 [E,G,]2 [E,B,]2 [E,G,]2 | [D,F,]4 [E,B,]2 | [B,,B,]6 | [B,,B,]2 [E,B,]2 [G,B,]2 | A,2 [F,C]2 B,2 | %5
 [E,G,]6 | [E,E]2 [G,E]2 [A,E]2 | [B,D]6 | [D,B,]2 [E,B,]2 [C,A,]2 | [B,,B,]6 | %10
 [A,,C]2 [G,,E]2 [C,G,]2 | (B,>A,) G,2 [B,,F,]2 | [E,G,]6 |] %13
V:4
 x6 | x6 | x6 | x6 | (A,2 B,2) x2 | x6 | x6 | x6 | x6 | x6 | x6 | B,,4 x2 | x6 |] %13

